styles/2/Numix/22/places/pink-user-desktop.svg

<?xml version="1.0" encoding="UTF-8" standalone="no"?>
<svg
   xmlns:dc="http://purl.org/dc/elements/1.1/"
   xmlns:cc="http://creativecommons.org/ns#"
   xmlns:rdf="http://www.w3.org/1999/02/22-rdf-syntax-ns#"
   xmlns:svg="http://www.w3.org/2000/svg"
   xmlns="http://www.w3.org/2000/svg"
   xmlns:sodipodi="http://sodipodi.sourceforge.net/DTD/sodipodi-0.dtd"
   xmlns:inkscape="http://www.inkscape.org/namespaces/inkscape"
   width="22"
   height="22"
   viewBox="0 0 22 22"
   id="svg2"
   version="1.1"
   inkscape:version="0.91 r"
   sodipodi:docname="pink-user-desktop.svg">
  <metadata
     id="metadata20">
    <rdf:RDF>
      <cc:Work
         rdf:about="">
        <dc:format>image/svg+xml</dc:format>
        <dc:type
           rdf:resource="http://purl.org/dc/dcmitype/StillImage" />
      </cc:Work>
    </rdf:RDF>
  </metadata>
  <defs
     id="defs18" />
  <sodipodi:namedview
     pagecolor="#ffffff"
     bordercolor="#666666"
     borderopacity="1"
     objecttolerance="10"
     gridtolerance="10"
     guidetolerance="10"
     inkscape:pageopacity="0"
     inkscape:pageshadow="2"
     inkscape:window-width="1280"
     inkscape:window-height="998"
     id="namedview16"
     showgrid="true"
     inkscape:zoom="30.34131"
     inkscape:cx="6.9061676"
     inkscape:cy="10.010262"
     inkscape:window-x="0"
     inkscape:window-y="0"
     inkscape:window-maximized="1"
     inkscape:current-layer="svg2">
    <inkscape:grid
       type="xygrid"
       id="grid4315" />
  </sodipodi:namedview>
  <path
     style="font-size:medium;font-style:normal;font-variant:normal;font-weight:normal;font-stretch:normal;text-indent:0;text-align:start;text-decoration:none;line-height:normal;letter-spacing:normal;word-spacing:normal;text-transform:none;direction:ltr;block-progression:tb;writing-mode:lr-tb;text-anchor:start;baseline-shift:baseline;color:#000000;fill:#f06292;fill-opacity:1;fill-rule:nonzero;stroke:none;stroke-width:1.03313816;marker:none;visibility:visible;display:inline;overflow:visible;enable-background:accumulate;font-family:Sans;-inkscape-font-specification:Sans"
     d="m 3.0000116,2.0000004 c -0.5473306,0 -1,0.4096882 -1,1 l 0,1 -1,0 c -0.50192724,0 -1.000000044444,0.3847489 -1.000000044444,1 -1.53000004e-5,4.5937493 0,9.4062496 0,13.9999996 0,0.545771 0.493417304444,1 1.000000044444,1 l 20.0000004,0 c 0.515688,0 1,-0.437034 1,-1 l 0,-12.9999996 c 0,-0.5770209 -0.423105,-1 -1,-1 l -2,0 0,-2 c 0,-0.4874255 -0.401824,-1 -1,-1 z"
     id="path2995"
     inkscape:connector-curvature="0"
     sodipodi:nodetypes="ccccccssssscssc" />
  <path
     style="font-size:medium;font-style:normal;font-variant:normal;font-weight:normal;font-stretch:normal;text-indent:0;text-align:start;text-decoration:none;line-height:normal;letter-spacing:normal;word-spacing:normal;text-transform:none;direction:ltr;block-progression:tb;writing-mode:lr-tb;text-anchor:start;baseline-shift:baseline;color:#000000;fill:#000000;fill-opacity:0.32156863;fill-rule:nonzero;stroke:none;stroke-width:1.03313816;marker:none;visibility:visible;display:inline;overflow:visible;enable-background:accumulate;font-family:Sans;-inkscape-font-specification:Sans"
     d="m 3.0000116,2.0000004 c -0.5444543,0 -1,0.3988699 -1,1 l 0,1 -1,0 c -0.50675954,0 -1.000000044444,0.3964676 -1.000000044444,1 -2.6e-5,4.5937491 0,9.4062496 0,13.9999996 0,0.487177 0.419198604444,1 1.000000044444,1 l 20.0000004,0 c 0.521212,0 1,-0.442558 1,-1 l 0,-12.9999996 c 0,-0.5731146 -0.393904,-1 -1,-1 l -2,0 0,-2 c 0,-0.5585119 -0.457433,-1 -1,-1 z m 10.0000004,3 0,1 8,0 0,12.9999996 -20.0000004,0 0,-13.9999996 z"
     id="path3786"
     inkscape:connector-curvature="0"
     sodipodi:nodetypes="ssccccssssscsssccccccc" />
  <path
     style="opacity:1;fill:#000000;fill-opacity:0.32156863000000002;stroke:none"
     d="M 6 8 C 5.446 8 5 8.446 5 9 L 5 15 C 5 15.554 5.446 16 6 16 L 9 16 L 7 17 C 5 18 6 18 7 18 L 15 18 C 16 18 17 18 15 17 L 13 16 L 16 16 C 16.554 16 17 15.554 17 15 L 17 9 C 17 8.446 16.554 8 16 8 L 6 8 z M 7 9 L 15 9 C 15.554 9 16 9.446 16 10 L 16 13.90625 C 16 14.46025 15.554 15 15 15 L 13 15 L 9 15 L 7 15 C 6.446 15 6 14.46025 6 13.90625 L 6 10 C 6 9.446 6.446 9 7 9 z M 8 10 L 8 14 L 12 14 L 12 10 L 8 10 z M 9 11 L 10 12 L 11 13 L 9 13 L 9 11 z "
     id="path3838" />
</svg>

<svg xmlns="http://www.w3.org/2000/svg" viewBox="0 0 22 22">
 <path d="m 3 2 c -0.547 0 -1 0.41 -1 1 l 0 1 -1 0 c -0.502 0 -1 0.385 -1 1 0 4.594 0 9.406 0 14 0 0.546 0.493 1 1 1 l 20 0 c 0.516 0 1 -0.437 1 -1 l 0 -13 c 0 -0.577 -0.423 -1 -1 -1 l -2 0 0 -2 c 0 -0.487 -0.402 -1 -1 -1 z" style="visibility:visible;fill:#f06292;fill-opacity:1;stroke:none;display:inline;color:#000;fill-rule:nonzero"/>
 <path d="m 3 2 c -0.544 0 -1 0.399 -1 1 l 0 1 -1 0 c -0.507 0 -1 0.396 -1 1 0 4.594 0 9.406 0 14 0 0.487 0.419 1 1 1 l 20 0 c 0.521 0 1 -0.443 1 -1 l 0 -13 c 0 -0.573 -0.394 -1 -1 -1 l -2 0 0 -2 c 0 -0.559 -0.457 -1 -1 -1 z m 10 3 0 1 8 0 0 13 -20 0 0 -14 z" style="visibility:visible;fill:#000;fill-opacity:0.322;stroke:none;display:inline;color:#000;fill-rule:nonzero"/>
 <path d="m 6 8 c -0.554 0 -1 0.446 -1 1 l 0 6 c 0 0.554 0.446 1 1 1 l 3 0 l -2 1 c -2 1 -1 1 0 1 l 8 0 c 1 0 2 0 0 -1 l -2 -1 l 3 0 c 0.554 0 1 -0.446 1 -1 l 0 -6 c 0 -0.554 -0.446 -1 -1 -1 l -10 0 z m 1 1 l 8 0 c 0.554 0 1 0.446 1 1 l 0 3.906 c 0 0.554 -0.446 1.094 -1 1.094 l -2 0 l -4 0 l -2 0 c -0.554 0 -1 -0.54 -1 -1.094 l 0 -3.906 c 0 -0.554 0.446 -1 1 -1 z m 1 1 l 0 4 l 4 0 l 0 -4 l -4 0 z m 1 1 l 1 1 l 1 1 l -2 0 l 0 -2 z" style="fill:#000;opacity:1;fill-opacity:0.322;stroke:none"/>
</svg>
